X:1
T:Emsworth, 12.10.12.10
T:Emsworth, 12.10.12.10
T:John Henry Cornell, 1871
T:Public Domain Courtesy of the Cyber Hymnal™
C:John Henry Cornell, 1871
Z:Public Domain
Z:Courtesy of the Cyber Hymnal™
%%score ( 1 2 ) ( 3 4 )
L:1/8
Q:1/4=102
M:3/4
K:G
V:1 treble 
V:2 treble 
V:3 bass 
V:4 bass 
V:1
 [DB]2 [DG]2 [^CG]2 | [DF][DG] [DA]2 [^DA]2 | [EA][EB] [Ac]2 [EB]2 | [EA]4 [EA]2 | %4
 [DA][DA] [DB]2 [G^c]2 | ([Fd]2 [E^c]2 [DB]2) | [^DA]2 [EG]2 [^CE]2 | D4 z2 | D2 [DF]2 [DA]2 | %9
 [DA][DG] [DG]2 [DG]2 | [DG][DF] [DF]2 [DG]2 | [Dc]3 z [Gc]2 | [FB][^DF] ([DF]2 [EG])[DA] x | %13
 (A2 G2) z2 | [EG]2 [DG]3 [DF] | [B,DG]6 |] %16
V:2
 x6 | x6 | x6 | x6 | x6 | x6 | x6 | D4 x2 | D2 x4 | x6 | x6 | x6 | x7 | E4 x2 | x6 | x6 |] %16
V:3
 G,2 [G,B,]2 [E,G,]2 | [D,A,][E,A,] [F,A,]2 [=F,B,]2 | [E,C][E,D] [E,E]2 D2 | [A,C]4 [G,^C]2 | %4
 [F,D][F,A,] G,2 [E,G,]2 | ([D,A,]2 [F,^A,]2 [G,B,]2) | [F,B,]2 [E,B,]2 [A,,G,]2 | [D,F,]4 z2 | %8
 [D,F,]2 [D,A,]2 C2 | [G,C][G,B,] [G,B,]2 [B,D]2 | [A,C][A,C] [A,C]2 [G,B,]2 | [F,A,]3 z (G,A,) | %12
 [^D,B,][A,B,] B,3 G,[F,B,] | [E,-B,]4 E,D, | [C,A,]2 [D,A,]3 [D,C] | [G,,B,]6 |] %16
V:4
 G,2 x4 | x6 | x4 (F,^G,) | x6 | x2 G,2 x2 | x6 | x6 | x6 | x4 (E,F,) | x6 | x6 | x4 E,2 | %12
 x2 A,2 x3 | x6 | x6 | x6 |] %16

